icon-themes/sifr_svg/cmd/sc_hangingindent.svg

<svg viewBox="0 0 16 16" xmlns="http://www.w3.org/2000/svg"><path d="m1 1v2h14v-2zm0 4v1c0 .224022.12983.528449.3125.71875l.3710938.28125 1.3164062 1-1.3164062 1-.3710938.28125c-.18267.190288-.3125.461858-.3125.71875v1h.4121094.5878906c.30945 0 .55232-.0903.75-.28125l2.25-1.8828125v-1.6152344c-.725151-.618354-1.233922-1.1698591-2.25-1.9394531-.19768-.19095-.44055-.28125-.75-.28125h-.5878906zm7 0v2h7v-2zm0 4v2h7v-2zm0 4v2h7v-2z" fill="#555753"/></svg>

<?xml version="1.0" encoding="UTF-8" standalone="no"?>
<svg
   xmlns:dc="http://purl.org/dc/elements/1.1/"
   xmlns:cc="http://creativecommons.org/ns#"
   xmlns:rdf="http://www.w3.org/1999/02/22-rdf-syntax-ns#"
   xmlns:svg="http://www.w3.org/2000/svg"
   xmlns="http://www.w3.org/2000/svg"
   xmlns:sodipodi="http://sodipodi.sourceforge.net/DTD/sodipodi-0.dtd"
   xmlns:inkscape="http://www.inkscape.org/namespaces/inkscape"
   viewBox="0 0 16 16"
   version="1.1"
   id="svg4"
   sodipodi:docname="sc_hangingindent.svg"
   inkscape:version="0.92.4 (unknown)">
  <metadata
     id="metadata10">
    <rdf:RDF>
      <cc:Work
         rdf:about="">
        <dc:format>image/svg+xml</dc:format>
        <dc:type
           rdf:resource="http://purl.org/dc/dcmitype/StillImage" />
        <dc:title></dc:title>
      </cc:Work>
    </rdf:RDF>
  </metadata>
  <defs
     id="defs8" />
  <sodipodi:namedview
     pagecolor="#ffffff"
     bordercolor="#666666"
     borderopacity="1"
     objecttolerance="10"
     gridtolerance="10"
     guidetolerance="10"
     inkscape:pageopacity="0"
     inkscape:pageshadow="2"
     inkscape:window-width="1366"
     inkscape:window-height="706"
     id="namedview6"
     showgrid="true"
     inkscape:zoom="14.75"
     inkscape:cx="-3.3559322"
     inkscape:cy="8"
     inkscape:window-x="0"
     inkscape:window-y="0"
     inkscape:window-maximized="1"
     inkscape:current-layer="svg4">
    <inkscape:grid
       type="xygrid"
       id="grid817" />
  </sodipodi:namedview>
  <path
     d="M 1,1 V 3 H 15 V 1 Z M 1,5 V 6 C 1,6.224022 1.12983,6.528449 1.3125,6.71875 L 1.6835938,7 3,8 1.6835938,9 1.3125,9.28125 C 1.12983,9.471538 1,9.743108 1,10 v 1 H 1.4121094 2 c 0.30945,0 0.55232,-0.0903 0.75,-0.28125 L 5,8.8359375 V 7.2207031 C 4.274849,6.6023491 3.766078,6.050844 2.75,5.28125 2.55232,5.0903 2.30945,5 2,5 H 1.4121094 Z m 7,0 v 2 h 7 V 5 Z m 0,4 v 2 h 7 V 9 Z m 0,4 v 2 h 7 v -2 z"
     id="path2"
     inkscape:connector-curvature="0"
     style="fill:#555753"
     sodipodi:nodetypes="ccccccscccccsccsccccsccccccccccccccccc" />
</svg>
